Gruvbox-Material-Icons/actions/24/fitsize.svg

<svg xmlns="http://www.w3.org/2000/svg" width="24" height="24" version="1.1" viewBox="0 0 24 24">
 <defs>
  <style id="current-color-scheme" type="text/css">
   .ColorScheme-Text { color:#ebdbb2; } .ColorScheme-Highlight { color:#458588; }
  </style>
 </defs>
 <path style="fill:currentColor" class="ColorScheme-Text" d="m 5,6 v 2 3 2 5 h 2 v -5 h 5 V 11 6 H 7 Z m 2,2 h 3 v 3 H 7 Z m 6,3 v 1.537109 L 14.683594,14.5 13,16.462891 V 18 h 1.316406 L 16,16.037109 17.683594,18 H 19 V 16.462891 L 17.316406,14.5 19,12.537109 V 11 H 17.683594 L 16,12.962891 14.316406,11 Z"/>
</svg>

<svg width="24" height="24" version="1.1" viewBox="0 0 24 24" xmlns="http://www.w3.org/2000/svg">
  <defs>
    <style id="current-color-scheme" type="text/css">.ColorScheme-Text { color:#ebdbb2; } .ColorScheme-Highlight { color:#458588; }</style>
  </defs>
  <path class="ColorScheme-Text" d="m5 6v12h2v-5h5v-7h-5zm2 2h3v3h-3zm6 3v1.537l1.684 1.963-1.684 1.963v1.537h1.316l1.684-1.963 1.684 1.963h1.316v-1.537l-1.684-1.963 1.684-1.963v-1.537h-1.316l-1.684 1.963-1.684-1.963z" fill="currentColor"/>
</svg>
